svgs/breezy_weather.svg

<svg width="192" height="192" viewBox="0 0 192 192" fill="none" xmlns="http://www.w3.org/2000/svg">
<path d="M22 96V22L96 96M22 96H96M22 96L54.0192 128.019M96 96V170M96 96L22 170H96M96 96H170M96 96L170 170V96M96 96V22M96 96L170 22H96M96 170L125.885 140.115M170 96L138.692 64.6923M96 22L64.6923 53.3077" stroke="black" stroke-width="12" stroke-linecap="round" stroke-linejoin="round"/>
<path d="M96 148.654C125.08 148.654 148.654 125.08 148.654 96C148.654 66.9201 125.08 43.3462 96 43.3462C66.9201 43.3462 43.3462 66.9201 43.3462 96C43.3462 125.08 66.9201 148.654 96 148.654Z" stroke="black" stroke-width="12"/>
</svg>

<svg xmlns="http://www.w3.org/2000/svg" width="192" height="192" fill="none" viewBox="0 0 192 192"><path stroke="#000" stroke-linecap="round" stroke-linejoin="round" stroke-width="12" d="M22 96V22l74 74m-74 0h74m-74 0 32.02 32.019M96 96v74m0-74-74 74h74m0-74h74m-74 0 74 74V96m-74 0V22m0 74 74-74H96m0 148 29.885-29.885M170 96l-31.308-31.308M96 22 64.692 53.308"/><path stroke="#000" stroke-width="12" d="M96 148.654c29.08 0 52.654-23.574 52.654-52.654 0-29.08-23.574-52.654-52.654-52.654-29.08 0-52.654 23.574-52.654 52.654 0 29.08 23.574 52.654 52.654 52.654Z"/></svg>
